icons/communication/message-closed-24.svg

<svg width="24" height="24" viewBox="0 0 24 24" fill="none" xmlns="http://www.w3.org/2000/svg">
<path fill-rule="evenodd" clip-rule="evenodd" d="M12.5 6.5C9.73858 6.5 7.5 8.73858 7.5 11.5C7.5 14.2614 9.73858 16.5 12.5 16.5C15.2614 16.5 17.5 14.2614 17.5 11.5C17.5 8.73858 15.2614 6.5 12.5 6.5ZM10.6126 8.55197C11.1572 8.2026 11.8049 8 12.5 8C14.433 8 16 9.567 16 11.5C16 12.1951 15.7974 12.8428 15.448 13.3874L10.6126 8.55197ZM9.55197 9.61263C9.2026 10.1572 9 10.8049 9 11.5C9 13.433 10.567 15 12.5 15C13.1951 15 13.8428 14.7974 14.3874 14.448L9.55197 9.61263Z" fill="black"/>
<path fill-rule="evenodd" clip-rule="evenodd" d="M3.00001 11.5C3.00001 12.8408 3.27821 14.1184 3.78057 15.2767L2.08244 19.3131C1.7836 20.0234 2.36666 20.7906 3.13105 20.6928L8.3135 20.03C9.57728 20.6513 10.9989 21 12.5 21C17.7467 21 22 16.7467 22 11.5C22 6.25329 17.7467 2 12.5 2C7.2533 2 3.00001 6.25329 3.00001 11.5ZM12.5 3.5C8.08173 3.5 4.50001 7.08172 4.50001 11.5C4.50001 12.7385 4.78091 13.9092 5.28177 14.9539C5.39825 15.1969 5.37227 15.4713 5.23708 15.6828L3.80161 19.0948L8.34898 18.5132C8.48487 18.4958 8.61691 18.516 8.73469 18.5656C8.75906 18.5752 8.78317 18.5862 8.80691 18.5986C9.91092 19.1742 11.1663 19.5 12.5 19.5C16.9183 19.5 20.5 15.9183 20.5 11.5C20.5 7.08172 16.9183 3.5 12.5 3.5Z" fill="black"/>
</svg>

<svg xmlns="http://www.w3.org/2000/svg" width="24" height="24"><path fill-rule="evenodd" d="M12.5 6.5a5 5 0 100 10 5 5 0 000-10zm-1.887 2.052a3.5 3.5 0 014.835 4.835l-4.835-4.835zm-1.061 1.06a3.5 3.5 0 004.835 4.835L9.552 9.614z"/><path fill-rule="evenodd" d="M3 11.5c0 1.34.278 2.618.78 3.777l-1.698 4.036a1 1 0 001.05 1.38l5.181-.663A9.5 9.5 0 103 11.5zm9.5-8a8 8 0 00-7.218 11.454.75.75 0 01-.045.729l-1.435 3.412 4.547-.582a.746.746 0 01.458.086A8 8 0 1012.5 3.5z"/></svg>
